assets/images/simple-illustrations/simple-illustration__replace-receipt.svg

<svg xmlns="http://www.w3.org/2000/svg" width="96" height="96" fill="none" viewBox="0 0 96 96"><path fill="#99F6FF" d="M16.8237 67.1188L21.2513 65.0609L25.5598 67.7264L30.35 65.1813L35.1403 67.8468L39.0916 65.548L43.8818 67.8468L47.8331 65.0609L52.1416 67.3597C52.1416 67.3597 51.1835 59.2482 51.1835 58.3998C51.1835 57.5514 53.2187 34.7932 52.9806 29.7085C52.7424 24.6238 51.1835 14.8155 51.1835 14.8155L46.2742 17.2347L41.0077 14.6896L37.2945 16.868L31.7844 14.3229L28.4339 16.868L23.2865 14.2025L19.936 17.2293L15.1458 14.9305C15.1458 14.9305 17.6627 23.2828 16.9428 33.2115C16.2229 43.1401 14.4259 61.7823 16.8237 67.1134V67.1188Z"/><path stroke="#002140" stroke-linecap="round" stroke-linejoin="round" d="M15.092 14.5966C20.4777 25.3024 12.7592 58.6077 16.5264 67.7263"/><path stroke="#002140" stroke-linecap="round" stroke-linejoin="round" d="M51.0104 14.5966C56.396 25.3024 48.6775 58.6077 52.4447 67.7263"/><path stroke="#002140" stroke-linecap="round" stroke-linejoin="round" d="M16.5266 67.7262L21.2681 64.7322L26.0151 67.759L30.3561 64.6392L35.1138 67.9998L39.1138 64.8691L43.7796 67.8849L47.5955 64.579L52.4453 67.7262"/><path stroke="#002140" stroke-linecap="round" stroke-linejoin="round" d="M51.0107 14.5966L46.1772 17.2621L41.4302 14.2408L37.0892 17.3606L32.3315 14L28.3315 17.1253L23.6657 14.1149L19.8498 17.4208L15 14.2737"/><path stroke="#002140" stroke-linecap="round" stroke-linejoin="round" d="M22.1824 24.4103H24.3475"/><path stroke="#002140" stroke-linecap="round" stroke-linejoin="round" d="M28.5096 24.4103H43.0806"/><path stroke="#002140" stroke-linecap="round" stroke-linejoin="round" d="M45.1642 24.4103H47.3293"/><path stroke="#002140" stroke-linecap="round" stroke-linejoin="round" d="M21.6465 58.9199H23.8116"/><path stroke="#002140" stroke-linecap="round" stroke-linejoin="round" d="M27.9736 58.9199H42.5392"/><path stroke="#002140" stroke-linecap="round" stroke-linejoin="round" d="M44.6229 58.9199H46.788"/><path stroke="#002140" stroke-linecap="round" stroke-linejoin="round" d="M22.9023 32.6749H44.1851"/><path stroke="#002140" stroke-linecap="round" stroke-linejoin="round" d="M22.9023 41.4816H39.5663"/><path stroke="#002140" stroke-linecap="round" stroke-linejoin="round" d="M23.5303 50.8357H42.6461"/><path fill="#E5FAFE" d="M35.1989 72.6926L39.9576 71.6001L43.6178 75.1032L48.8325 73.6096L52.9639 77.2129L57.3068 75.7858L61.5144 79.0303L65.9585 77.1268L69.695 80.2711C69.695 80.2711 70.4443 72.1377 70.6207 71.3079C70.7971 70.478 77.5195 48.6403 78.3437 43.6172C79.1679 38.594 79.6824 28.676 79.6824 28.676L74.3774 30.0217L69.755 26.4372L65.6702 27.796L60.8096 24.1609L57.0032 25.9538L52.5224 22.2763L48.6158 24.5403L44.4082 21.2958C44.4082 21.2958 45.1336 29.9889 42.3651 39.5509C39.5967 49.1129 33.963 66.9741 35.2001 72.6872L35.1989 72.6926Z"/><path stroke="#002140" stroke-linecap="round" stroke-linejoin="round" d="M44.4249 20.9579C47.467 32.5495 32.9926 63.5223 34.7816 73.2249"/><path stroke="#002140" stroke-linecap="round" stroke-linejoin="round" d="M79.5585 28.4257C82.6006 40.0173 68.1261 70.9901 69.9152 80.6927"/><path stroke="#002140" stroke-linecap="round" stroke-linejoin="round" d="M34.7818 73.225L40.0422 71.2823L44.0561 75.2299L48.9509 73.0808L52.906 77.3572L57.4695 75.1265L61.4062 79.0465L65.8261 76.6062L69.9156 80.6929"/><path stroke="#002140" stroke-linecap="round" stroke-linejoin="round" d="M79.5587 28.4258L74.2766 30.0282L70.2616 26.0859L65.3668 28.235L61.4117 23.9586L56.8494 26.184L52.9115 22.2694L48.4916 24.7096L44.4021 20.6229"/><path stroke="#002140" stroke-linecap="round" stroke-linejoin="round" d="M49.3199 32.0312L51.4377 32.4814"/><path stroke="#002140" stroke-linecap="round" stroke-linejoin="round" d="M55.5089 33.3469L69.7615 36.3764"/><path stroke="#002140" stroke-linecap="round" stroke-linejoin="round" d="M71.7996 36.8096L73.9173 37.2597"/><path stroke="#002140" stroke-linecap="round" stroke-linejoin="round" d="M41.6208 65.6753L43.7386 66.1254"/><path stroke="#002140" stroke-linecap="round" stroke-linejoin="round" d="M47.8097 66.9907L62.057 70.0191"/><path stroke="#002140" stroke-linecap="round" stroke-linejoin="round" d="M64.0952 70.4521L66.213 70.9023"/><path stroke="#002140" stroke-linecap="round" stroke-linejoin="round" d="M48.3059 40.2653L69.1236 44.6902"/><path stroke="#002140" stroke-linecap="round" stroke-linejoin="round" d="M46.4749 48.8794L62.7746 52.344"/><path stroke="#002140" stroke-linecap="round" stroke-linejoin="round" d="M45.1443 58.1593L63.8424 62.1337"/><path fill="#5BE3AA" stroke="#002140" stroke-linecap="round" d="M75.4375 59.5H85.5V69.5625C85.5 70.6326 84.6326 71.5 83.5625 71.5C82.4924 71.5 81.625 70.6326 81.625 69.5625V67.502L80.7803 68.3057C78.7131 70.2719 75.9673 71.4999 72.8916 71.5C68.3219 71.5 64.4642 68.7803 62.5059 64.9629L62.3223 64.5898C61.861 63.6121 62.2364 62.4576 63.1748 61.9141L63.3691 61.8135C64.3866 61.3525 65.5747 61.7345 66.127 62.6484L66.2285 62.8379C67.5233 65.5808 70.0862 67.3086 72.8916 67.3086C75.2081 67.3085 77.3678 66.1251 78.7744 64.167L79.3428 63.375H75.4375L75.2393 63.3652C74.2623 63.266 73.5 62.4406 73.5 61.4375C73.5 60.4344 74.2623 59.609 75.2393 59.5098L75.4375 59.5ZM73.1084 46.5C77.6774 46.5 81.5342 49.2193 83.4932 53.0361L83.6768 53.4082C84.1386 54.3861 83.7644 55.5419 82.8262 56.0859L82.6309 56.1865C81.6134 56.6478 80.4257 56.2657 79.873 55.3516L79.7715 55.1621C78.4762 52.4198 75.9134 50.6934 73.1084 50.6934C70.7924 50.6935 68.6333 51.8757 67.2266 53.833L66.6572 54.625H70.5625C71.6326 54.625 72.5 55.4924 72.5 56.5625C72.5 57.6326 71.6326 58.5 70.5625 58.5H60.5V48.4375C60.5 47.3674 61.3674 46.5 62.4375 46.5C63.5076 46.5 64.375 47.3674 64.375 48.4375V50.498L65.2197 49.6943C67.287 47.7281 70.0328 46.5001 73.1084 46.5Z"/></svg>

<svg xmlns="http://www.w3.org/2000/svg" width="96" height="96" fill="none" viewBox="0 0 96 96"><path fill="#99f6ff" d="m16.824 67.119 4.427-2.058 4.309 2.665 4.79-2.545 4.79 2.666 3.952-2.299 4.79 2.299 3.951-2.786 4.309 2.299s-.959-8.112-.959-8.96 2.036-23.607 1.798-28.691c-.239-5.085-1.797-14.893-1.797-14.893l-4.91 2.419-5.266-2.545-3.714 2.178-5.51-2.545-3.35 2.545-5.148-2.665-3.35 3.026-4.79-2.298s2.517 8.352 1.797 18.28c-.72 9.93-2.517 28.571-.12 33.902z"/><path stroke="#002140" stroke-linecap="round" stroke-linejoin="round" d="M15.092 14.597c5.386 10.705-2.333 44.01 1.434 53.13M51.01 14.597c5.386 10.705-2.332 44.01 1.435 53.13"/><path stroke="#002140" stroke-linecap="round" stroke-linejoin="round" d="m16.527 67.726 4.741-2.994 4.747 3.027 4.341-3.12L35.114 68l4-3.13 4.666 3.016 3.816-3.306 4.85 3.147M51.01 14.597l-4.833 2.665-4.747-3.021-4.34 3.12L32.33 14l-4 3.125-4.665-3.01-3.816 3.306L15 14.274M22.182 24.41h2.166M28.51 24.41h14.57M45.164 24.41h2.165M21.647 58.92h2.165M27.974 58.92h14.565M44.623 58.92h2.165M22.902 32.675h21.283M22.902 41.482h16.664M23.53 50.836h19.116"/><path fill="#e5fafe" d="m35.199 72.693 4.759-1.093 3.66 3.503 5.215-1.493 4.13 3.603 4.344-1.427 4.207 3.244 4.444-1.903 3.737 3.144s.75-8.133.926-8.963 6.898-22.668 7.723-27.69c.824-5.024 1.338-14.942 1.338-14.942l-5.305 1.346-4.622-3.585-4.085 1.359-4.86-3.635-3.807 1.793-4.48-3.678-3.907 2.264-4.208-3.244s.726 8.693-2.043 18.255c-2.768 9.562-8.402 27.423-7.165 33.136z"/><path stroke="#002140" stroke-linecap="round" stroke-linejoin="round" d="M44.425 20.958c3.042 11.592-11.432 42.564-9.643 52.267M79.559 28.426C82.6 40.017 68.125 70.99 69.914 80.693"/><path stroke="#002140" stroke-linecap="round" stroke-linejoin="round" d="m34.782 73.225 5.26-1.943 4.014 3.948 4.895-2.15 3.955 4.277 4.563-2.23 3.937 3.92 4.42-2.44 4.09 4.086M79.559 28.426l-5.282 1.602-4.015-3.942-4.895 2.149-3.955-4.276-4.563 2.225-3.937-3.915-4.42 2.44-4.09-4.086M49.32 32.031l2.118.45M55.509 33.347l14.252 3.03M71.8 36.81l2.117.45M41.62 65.675l2.119.45M47.81 66.99l14.247 3.03M64.095 70.452l2.118.45M48.306 40.265l20.818 4.425M46.475 48.88l16.3 3.464M45.144 58.16l18.698 3.974"/><path fill="#5be3aa" stroke="#002140" stroke-linecap="round" d="M75.438 59.5H85.5v10.063a1.937 1.937 0 1 1-3.875 0v-2.061l-.845.804c-2.067 1.966-4.813 3.194-7.888 3.194-4.57 0-8.428-2.72-10.386-6.537l-.184-.373a2.07 2.07 0 0 1 .853-2.676l.194-.1c1.018-.462 2.206-.08 2.758.834l.102.19c1.294 2.743 3.857 4.47 6.663 4.47 2.316 0 4.476-1.183 5.882-3.141l.569-.792h-3.906l-.198-.01a1.938 1.938 0 0 1 0-3.855zm-2.33-13c4.57 0 8.426 2.72 10.385 6.536l.184.372a2.07 2.07 0 0 1-.85 2.678l-.196.1c-1.018.462-2.205.08-2.758-.834l-.102-.19c-1.295-2.742-3.858-4.469-6.663-4.469-2.316 0-4.475 1.183-5.881 3.14l-.57.792h3.906a1.937 1.937 0 1 1 0 3.875H60.5V48.438a1.937 1.937 0 1 1 3.875 0v2.06l.845-.804c2.067-1.966 4.813-3.194 7.888-3.194Z"/></svg>
